media/theme/theme-4/line.svg

<svg fill="none" height="24" viewBox="0 0 155 24" width="155" xmlns="http://www.w3.org/2000/svg"><path clip-rule="evenodd" d="m74.4488 11.0629c-1.1233-.1055-1.5174.1696-2.4035.3719v.7537c1.1174.0422 2.3459-.0513 2.7413.3768.1522.8967.0318 1.8236-.3426 2.6377-.6737.6224-.8845.8289-2.0561.7536-2.2078-2.3246-2.9795-2.9071-4.7974-4.1449 2.5217-1.3019 2.4882-3.63477 6.1681-3.76816.5175.1251.9139.8791 1.028 1.13043.0905.78641.0446 1.46163-.3378 1.88893zm3.0792-1.1353h1.028c.9715.5584 1.1175.997 1.028 2.6377-.5678 1.1199-.8114 1.1632-2.3987 1.1304-.8224-.2427-.894-.751-1.028-1.5072.0795-.4594-.137-.7537.3427-1.5073.3224-.85195.698-.73514 1.028-.7536zm-22.6164.3768h8.2242v.3768c-.3532.088-.6975.2142-1.0281.3768-.3294.2724-.6726.524-1.028.7537v.3768c.4921.237.8697.4985 1.3707.7536.3187.315.6854.6281.6854.7536h-6.8535c-3.2608-.211-8.8958-.3768-11.9935-.3768l-17.1336-.3768c-4.1121-.0234-9.294.1711-12.6789 0-3.2348-.1635-11.26673.2423-14.049577-.7536 5.745927-.0524 14.273677-.436 19.874977-.7537 3.3945-.1925 10.1164-.119 13.3642-.3768 3.5015-.2781 6.9793-.1507 10.2802-.3768 3.1738-.2185 9.1333-.3214 10.9655-.3768zm45.2324 3.3913h-8.2238v-.3768c.3532-.088.6975-.2142 1.0281-.3768.3294-.2724.6726-.524 1.028-.7536v-.3768c-.4921-.2371-.8697-.4986-1.3707-.7537-.3187-.315-.6854-.6281-.6854-.7536h6.8535c3.2613.211 8.8953.3768 11.9933.3768l17.134.3768c4.112.0234 9.294-.171 12.679 0 3.234.1636 7.657-.0927 14.049.7537-8.633.4261-13.252.4615-18.847.7536-5.764.3014-7.13.1884-14.392.3768-3.51.0912-6.979.1507-10.28.3768-3.174.2186-9.133.3214-10.966.3768zm-18.8514-.7585c1.1233.1055 1.5174-.1696 2.4035-.3719v-.7536c-1.1174-.0422-2.3459.0512-2.7414-.3769-.1521-.8967-.0317-1.82361.3427-2.63764.6737-.62249.8844-.82898 2.056-.75362 2.2079 2.32456 2.9796 2.90706 4.7975 4.14496-2.5218 1.3018-2.4882 3.6347-6.1682 3.7681-.5174-.1251-.9139-.8791-1.028-1.1305-.0904-.786-.0445-1.4616.3379-1.8889zm-4.0709 3.0612c-.0956 1.2352.1542 1.6685.3385 2.643h.6854c.0383-1.2288-.047-2.5797.3426-3.0145.8155-.1672 1.6584-.0348 2.3987.3768.5661.7412.7539.9725.6854 2.2609-2.114 2.4277-2.6441 3.2763-3.7694 5.2753-1.1839-2.7729-3.3054-2.736-3.4267-6.7826.1134-.569.7994-1.005 1.028-1.1304.7148-.0995 1.3292-.049 1.7175.3715zm1.6407-7.99669c.0956-1.23519-.1542-1.66852-.3386-2.64295h-.6853c-.0384 1.22878.0469 2.57965-.3427 3.01449-.8155.16717-1.6584.03477-2.3987-.37681-.5661-.74082-.7539-.97255-.6854-2.26087 2.114-2.4278 2.6441-3.27638 3.7694-5.275365 1.184 2.772955 3.3055 2.736025 3.4268 6.782605-.1135.56899-.7995 1.00496-1.028 1.13044-.7149.09948-1.3293.04898-1.7175-.37154z" fill="#000" fill-rule="evenodd"/></svg>

<svg width="155" height="24" viewBox="0 0 155 24" fill="none" xmlns="http://www.w3.org/2000/svg">
<path fill-rule="evenodd" clip-rule="evenodd" d="M74.4488 11.0629C73.3255 10.9574 72.9314 11.2325 72.0453 11.4348V12.1885C73.1627 12.2307 74.3912 12.1372 74.7866 12.5653C74.9388 13.462 74.8184 14.3889 74.444 15.203C73.7703 15.8254 73.5595 16.0319 72.3879 15.9566C70.1801 13.632 69.4084 13.0495 67.5905 11.8117C70.1122 10.5098 70.0787 8.17693 73.7586 8.04354C74.2761 8.16864 74.6725 8.92264 74.7866 9.17397C74.8771 9.96038 74.8312 10.6356 74.4488 11.0629ZM77.528 9.9276H78.556C79.5275 10.486 79.6735 10.9246 79.584 12.5653C79.0162 13.6852 78.7726 13.7285 77.1853 13.6957C76.3629 13.453 76.2913 12.9447 76.1573 12.1885C76.2368 11.7291 76.0203 11.4348 76.5 10.6812C76.8224 9.82925 77.198 9.94606 77.528 9.9276ZM54.9116 10.3044H63.1358V10.6812C62.7826 10.7692 62.4383 10.8954 62.1077 11.058C61.7783 11.3304 61.4351 11.582 61.0797 11.8117V12.1885C61.5718 12.4255 61.9494 12.687 62.4504 12.9421C62.7691 13.2571 63.1358 13.5702 63.1358 13.6957H56.2823C53.0215 13.4847 47.3865 13.3189 44.2888 13.3189L27.1552 12.9421C23.0431 12.9187 17.8612 13.1132 14.4763 12.9421C11.2415 12.7786 3.20957 13.1844 0.426723 12.1885C6.17265 12.1361 14.7004 11.7525 20.3017 11.4348C23.6962 11.2423 30.4181 11.3158 33.6659 11.058C37.1674 10.7799 40.6452 10.9073 43.9461 10.6812C47.1199 10.4627 53.0794 10.3598 54.9116 10.3044ZM100.144 13.6957H91.9202V13.3189C92.2734 13.2309 92.6177 13.1047 92.9483 12.9421C93.2777 12.6697 93.6209 12.4181 93.9763 12.1885V11.8117C93.4842 11.5746 93.1066 11.3131 92.6056 11.058C92.2869 10.743 91.9202 10.4299 91.9202 10.3044H98.7737C102.035 10.5154 107.669 10.6812 110.767 10.6812L127.901 11.058C132.013 11.0814 137.195 10.887 140.58 11.058C143.814 11.2216 148.237 10.9653 154.629 11.8117C145.996 12.2378 141.377 12.2732 135.782 12.5653C130.018 12.8667 128.652 12.7537 121.39 12.9421C117.88 13.0333 114.411 13.0928 111.11 13.3189C107.936 13.5375 101.977 13.6403 100.144 13.6957ZM81.2926 12.9372C82.4159 13.0427 82.81 12.7676 83.6961 12.5653V11.8117C82.5787 11.7695 81.3502 11.8629 80.9547 11.4348C80.8026 10.5381 80.923 9.61119 81.2974 8.79716C81.9711 8.17467 82.1818 7.96818 83.3534 8.04354C85.5613 10.3681 86.333 10.9506 88.1509 12.1885C85.6291 13.4903 85.6627 15.8232 81.9827 15.9566C81.4653 15.8315 81.0688 15.0775 80.9547 14.8261C80.8643 14.0401 80.9102 13.3645 81.2926 12.9372ZM77.2217 15.9984C77.1261 17.2336 77.3759 17.6669 77.5602 18.6414H78.2456C78.2839 17.4126 78.1986 16.0617 78.5882 15.6269C79.4037 15.4597 80.2466 15.5921 80.9869 16.0037C81.553 16.7449 81.7408 16.9762 81.6723 18.2646C79.5583 20.6923 79.0282 21.5409 77.9029 23.5399C76.719 20.767 74.5975 20.8039 74.4762 16.7573C74.5896 16.1883 75.2756 15.7523 75.5042 15.6269C76.219 15.5274 76.8334 15.5779 77.2217 15.9984ZM78.8624 8.00171C78.958 6.76652 78.7082 6.33319 78.5238 5.35876H77.8385C77.8001 6.58754 77.8854 7.93841 77.4958 8.37325C76.6803 8.54042 75.8374 8.40802 75.0971 7.99644C74.531 7.25562 74.3432 7.02389 74.4117 5.73557C76.5257 3.30777 77.0558 2.45919 78.1811 0.460205C79.3651 3.23316 81.4866 3.19623 81.6079 7.24281C81.4944 7.8118 80.8084 8.24777 80.5799 8.37325C79.865 8.47273 79.2506 8.42223 78.8624 8.00171Z" fill="black"/>
</svg>
